build/svg/cmd/sc_dbviewaliases.svg

<svg xmlns="http://www.w3.org/2000/svg" viewBox="0 0 16 16">/&gt;<path d="M8 2a3 3 0 00-3 3 3 3 0 003 3 3 3 0 003-3 3 3 0 00-3-3zm0 6c-2.761 0-5 1.343-5 3v3h10v-3c0-1.657-2.239-3-5-3z" opacity=".6" stroke="#000" stroke-width="2" stroke-linejoin="round"/><path d="M8 2a3 3 0 00-3 3 3 3 0 003 3 3 3 0 003-3 3 3 0 00-3-3zm0 6c-2.761 0-5 1.343-5 3v3h10v-3c0-1.657-2.239-3-5-3z" fill="#aee3f8"/></svg>

<?xml version="1.0" encoding="UTF-8" standalone="no"?>
<svg
   xmlns:dc="http://purl.org/dc/elements/1.1/"
   xmlns:cc="http://creativecommons.org/ns#"
   xmlns:rdf="http://www.w3.org/1999/02/22-rdf-syntax-ns#"
   xmlns:svg="http://www.w3.org/2000/svg"
   xmlns="http://www.w3.org/2000/svg"
   xmlns:sodipodi="http://sodipodi.sourceforge.net/DTD/sodipodi-0.dtd"
   xmlns:inkscape="http://www.inkscape.org/namespaces/inkscape"
   viewBox="0 0 16 16"
   version="1.1"
   id="svg4"
   sodipodi:docname="sc_dbviewaliases.svg"
   inkscape:export-filename="/home/jupiter007/Libreoffice yaru theme fullcolor/build/cmd/sc_dbviewaliases.png"
   inkscape:export-xdpi="96"
   inkscape:export-ydpi="96"
   inkscape:version="0.92.5 (2060ec1f9f, 2020-04-08)"><metadata
   id="metadata10">
  <rdf:RDF>
    <cc:Work
       rdf:about="">
      <dc:format>image/svg+xml</dc:format>
      <dc:type
         rdf:resource="http://purl.org/dc/dcmitype/StillImage" />
    </cc:Work>
  </rdf:RDF>
</metadata>
<defs
   id="defs8" />
<sodipodi:namedview
   pagecolor="#ffffff"
   bordercolor="#666666"
   borderopacity="1"
   objecttolerance="10"
   gridtolerance="10"
   guidetolerance="10"
   inkscape:pageopacity="0"
   inkscape:pageshadow="2"
   inkscape:window-width="1920"
   inkscape:window-height="1011"
   id="namedview6"
   showgrid="true"
   inkscape:zoom="29.5"
   inkscape:cx="2.6494558"
   inkscape:cy="6.7941864"
   inkscape:window-x="0"
   inkscape:window-y="32"
   inkscape:window-maximized="1"
   inkscape:current-layer="svg4">
  <inkscape:grid
     type="xygrid"
     id="grid817" />
</sodipodi:namedview>
/&gt;<path
   id="path829"
   d="M 8 2 A 3 3 0 0 0 5 5 A 3 3 0 0 0 8 8 A 3 3 0 0 0 11 5 A 3 3 0 0 0 8 2 z M 8 8 C 5.2385763 8 3 9.3431458 3 11 L 3 14 L 13 14 L 13 11 C 13 9.3431458 10.761424 8 8 8 z "
   style="opacity:0.6;fill:#000000;fill-opacity:1;stroke:#000000;stroke-width:2;stroke-linejoin:round;stroke-miterlimit:4;stroke-dasharray:none;stroke-opacity:1" />
<path
   style="opacity:1;fill:#aee3f8;fill-opacity:1;stroke:none;stroke-width:1.90692508;stroke-linejoin:round;stroke-miterlimit:4;stroke-dasharray:none;stroke-opacity:1"
   d="M 8 2 A 3 3 0 0 0 5 5 A 3 3 0 0 0 8 8 A 3 3 0 0 0 11 5 A 3 3 0 0 0 8 2 z M 8 8 C 5.2385763 8 3 9.3431458 3 11 L 3 14 L 13 14 L 13 11 C 13 9.3431458 10.761424 8 8 8 z "
   id="path821" />
</svg>
